X: 54
T:Geld him lassies, geld him
M:3/2
L:1/8
C:Trad arr. Martin Dunne
R:Hornpipe
Z:Richard Moon
K:D
d4A2 Bc d2 D2|F2 A4 d2 c2 BA|e4 B2 cd e2 E2|G2 B4 d2 c2 BA:||!
d3 e defg agfe|d2 f4 a2 g2 f2|ef g2 fg a2 ga b2|g2 e4 B2 c2 BA:||!
"Harmony"
D2 F4 F2 A2 Bc|d4 A2 GF E2 D2|E2 G4 A2B2 cd|e4 B2 AG F2 F2:||!
D2 F4 F2 A2 Bc|d3 B AGFD EFGA|B2 d4 c2 B2 G2|AB c2 EF G2 CD E2:||

